svg/u1f521.svg

<svg viewBox="0 0 128 128" xmlns="http://www.w3.org/2000/svg">
  <g>
    <path d="M116,4H12c-4.4,0-8,3.6-8,8v104c0,4.4,3.6,8,8,8h104c4.4,0,8-3.6,8-8V12C124,7.6,120.4,4,116,4z" fill="#427687"/>
    <path d="M109.7,4H11.5C7.4,4,4,7.4,4,11.5v97.9c0,4.2,3.4,7.5,7.5,7.5h98.1c4.2,0,7.5-3.4,7.5-7.5V11.5 C117.3,7.4,113.8,4,109.7,4z" fill="#8CAFBF"/>
  </g>
  <path d="M39.7,12.9c0-2.3-1.6-3-10.8-2.7c-7.7,0.3-11.5,1.2-13.8,4 s-2.9,8.5-3,15.3c0,4.8,0,9.3,2.5,9.3c3.4,0,3.4-7.9,6.2-12.3C26.2,17.8,39.7,15.9,39.7,12.9z" opacity="0.5" fill="#B4E1ED" enable-background="new "/>
  <g>
    <path d="M29.32,50c-1.82-1.66-2.72-3.83-2.72-6.52c0-1.78,0.47-3.35,1.41-4.71s2.23-2.41,3.88-3.14 c1.64-0.73,3.46-1.1,5.45-1.1c2.76,0,5.12,0.4,7.07,1.2v-1.15c0-1.47-0.55-2.65-1.65-3.56c-1.1-0.91-2.58-1.36-4.43-1.36 c-1.26,0-2.47,0.29-3.64,0.86c-1.17,0.58-2.14,1.34-2.91,2.28l-4.4-3.46c1.29-1.68,2.92-2.97,4.87-3.88 c1.96-0.91,4.09-1.36,6.39-1.36c4.09,0,7.19,0.94,9.32,2.83c2.13,1.89,3.19,4.64,3.19,8.28v16.45h-6.76v-2.72h-0.42 c-0.8,1.05-1.86,1.9-3.17,2.57c-1.31,0.66-2.82,1-4.53,1C33.46,52.49,31.14,51.66,29.32,50z M42.65,45.23 c1.17-1.27,1.75-2.77,1.75-4.48c-1.78-0.84-3.65-1.26-5.6-1.26c-3.56,0-5.34,1.33-5.34,3.98c0,1.08,0.38,1.96,1.15,2.65 c0.77,0.68,1.87,1.02,3.3,1.02C39.9,47.15,41.48,46.51,42.65,45.23z" fill="#FAFAFA"/>
    <path d="M83.68,51.34c-1.41-0.77-2.47-1.73-3.17-2.88h-0.42v3.2h-6.44v-37.5h6.86v10.27l-0.42,3.77h0.42 c0.73-1.15,1.8-2.12,3.2-2.91c1.4-0.79,3-1.18,4.82-1.18c2.41,0,4.6,0.6,6.57,1.81c1.97,1.2,3.52,2.89,4.64,5.05 c1.12,2.17,1.68,4.61,1.68,7.33c0,2.76-0.56,5.21-1.68,7.36c-1.12,2.15-2.66,3.82-4.64,5.03c-1.97,1.21-4.16,1.81-6.57,1.81 C86.71,52.49,85.09,52.1,83.68,51.34z M90.93,45.15c1.12-0.66,2.01-1.59,2.67-2.78c0.66-1.19,1-2.55,1-4.09 c0-1.54-0.33-2.9-1-4.09c-0.66-1.19-1.55-2.1-2.67-2.75c-1.12-0.65-2.32-0.97-3.61-0.97c-1.26,0-2.44,0.32-3.56,0.97 c-1.12,0.65-2.01,1.56-2.67,2.75c-0.66,1.19-1,2.55-1,4.09c0,1.54,0.33,2.9,1,4.09c0.66,1.19,1.55,2.11,2.67,2.78 c1.12,0.66,2.3,1,3.56,1C88.61,46.15,89.82,45.82,90.93,45.15z" fill="#FAFAFA"/>
    <path d="M33.46,102.51c-2.13-1.2-3.8-2.89-5-5.05c-1.21-2.17-1.81-4.61-1.81-7.33 c0-2.72,0.6-5.16,1.81-7.31c1.2-2.15,2.87-3.83,5-5.05c2.13-1.22,4.54-1.83,7.23-1.83c2.97,0,5.52,0.64,7.65,1.91 c2.13,1.28,3.67,3.08,4.61,5.42l-6.29,2.62c-1.12-2.37-3.11-3.56-5.97-3.56c-2.1,0-3.82,0.72-5.16,2.15s-2.02,3.32-2.02,5.66 c0,2.38,0.67,4.28,2.02,5.71s3.06,2.15,5.16,2.15c2.9,0,4.99-1.26,6.29-3.77l6.23,2.72c-1.15,2.34-2.79,4.16-4.92,5.45 c-2.13,1.29-4.66,1.94-7.59,1.94C38,104.32,35.59,103.72,33.46,102.51z" fill="#FAFAFA"/>
    <path d="M78.55,102.51c-1.97-1.2-3.53-2.88-4.66-5.03s-1.7-4.6-1.7-7.36c0-2.72,0.57-5.17,1.7-7.33 s2.69-3.85,4.66-5.05c1.97-1.21,4.16-1.81,6.57-1.81c1.82,0,3.42,0.39,4.82,1.18c1.4,0.79,2.46,1.75,3.2,2.91h0.42l-0.42-3.77 V65.98h6.81v37.5h-6.39v-3.2h-0.42c-0.7,1.15-1.75,2.11-3.17,2.88c-1.42,0.77-3.03,1.15-4.85,1.15 C82.71,104.32,80.52,103.72,78.55,102.51z M89.89,96.99c1.12-0.66,2.01-1.59,2.67-2.78c0.66-1.19,1-2.55,1-4.08s-0.33-2.9-1-4.09 c-0.66-1.19-1.55-2.1-2.67-2.75c-1.12-0.65-2.32-0.97-3.61-0.97c-1.26,0-2.44,0.32-3.56,0.97c-1.12,0.65-2.01,1.56-2.67,2.75 c-0.66,1.19-1,2.55-1,4.09s0.33,2.9,1,4.08c0.66,1.19,1.55,2.11,2.67,2.78c1.12,0.66,2.3,1,3.56,1 C87.56,97.98,88.77,97.65,89.89,96.99z" fill="#FAFAFA"/>
  </g>
</svg>

<svg viewBox="0 0 128 128" xmlns="http://www.w3.org/2000/svg">
  <defs/>
  <path d="M116,4 L12,4 C7.6,4 4,7.6 4,12 L4,116 C4,120.4 7.6,124 12,124 L116,124 C120.4,124 124,120.4 124,116 L124,12 C124,7.6 120.4,4 116,4 Z" fill="#427687"/>
  <path d="M109.7,4 L11.5,4 C7.4,4 4,7.4 4,11.5 L4,109.4 C4,113.6 7.4,116.9 11.5,116.9 L109.6,116.9 C113.8,116.9 117.1,113.5 117.1,109.4 L117.1,11.5 C117.3,7.4 113.8,4 109.7,4 Z" fill="#8CAFBF"/>
  <path d="M39.7,12.9 C39.7,10.6 38.1,9.9 28.9,10.2 C21.2,10.5 17.4,11.4 15.1,14.2 C12.8,17 12.2,22.7 12.1,29.5 C12.1,34.3 12.1,38.8 14.6,38.8 C18,38.8 18,30.9 20.8,26.5 C26.2,17.8 39.7,15.9 39.7,12.9 Z" fill="#B4E1ED" opacity="0.5"/>
  <path d="M29.32,50 C27.5,48.34 26.6,46.17 26.6,43.48 C26.6,41.7 27.07,40.13 28.01,38.77 C28.95,37.41 30.24,36.36 31.89,35.63 C33.53,34.9 35.35,34.53 37.34,34.53 C40.1,34.53 42.46,34.93 44.41,35.73 L44.41,34.58 C44.41,33.11 43.86,31.93 42.76,31.02 C41.66,30.11 40.18,29.66 38.33,29.66 C37.07,29.66 35.86,29.95 34.69,30.52 C33.52,31.1 32.55,31.86 31.78,32.8 L27.38,29.34 C28.67,27.66 30.3,26.37 32.25,25.46 C34.21,24.55 36.34,24.1 38.64,24.1 C42.73,24.1 45.83,25.04 47.96,26.93 C50.09,28.82 51.15,31.57 51.15,35.21 L51.15,51.66 L44.39,51.66 L44.39,48.94 L43.97,48.94 C43.17,49.99 42.11,50.84 40.8,51.51 C39.49,52.17 37.98,52.51 36.27,52.51 C33.46,52.49 31.14,51.66 29.32,50 Z M42.65,45.23 C43.82,43.96 44.4,42.46 44.4,40.75 C42.62,39.91 40.75,39.49 38.8,39.49 C35.24,39.49 33.46,40.82 33.46,43.47 C33.46,44.55 33.84,45.43 34.61,46.12 C35.38,46.8 36.48,47.14 37.91,47.14 C39.9,47.15 41.48,46.51 42.65,45.23 Z" fill="#FAFAFA"/>
  <path d="M83.68,51.34 C82.27,50.57 81.21,49.61 80.51,48.46 L80.09,48.46 L80.09,51.66 L73.65,51.66 L73.65,14.16 L80.51,14.16 L80.51,24.43 L80.09,28.2 L80.51,28.2 C81.24,27.05 82.31,26.08 83.71,25.29 C85.11,24.5 86.71,24.11 88.53,24.11 C90.94,24.11 93.13,24.71 95.1,25.92 C97.07,27.12 98.62,28.81 99.74,30.97 C100.86,33.14 101.42,35.58 101.42,38.3 C101.42,41.06 100.86,43.51 99.74,45.66 C98.62,47.81 97.08,49.48 95.1,50.69 C93.13,51.9 90.94,52.5 88.53,52.5 C86.71,52.49 85.09,52.1 83.68,51.34 Z M90.93,45.15 C92.05,44.49 92.94,43.56 93.6,42.37 C94.26,41.18 94.6,39.82 94.6,38.28 C94.6,36.74 94.27,35.38 93.6,34.19 C92.94,33 92.05,32.09 90.93,31.44 C89.81,30.79 88.61,30.47 87.32,30.47 C86.06,30.47 84.88,30.79 83.76,31.44 C82.64,32.09 81.75,33 81.09,34.19 C80.43,35.38 80.09,36.74 80.09,38.28 C80.09,39.82 80.42,41.18 81.09,42.37 C81.75,43.56 82.64,44.48 83.76,45.15 C84.88,45.81 86.06,46.15 87.32,46.15 C88.61,46.15 89.82,45.82 90.93,45.15 Z" fill="#FAFAFA"/>
  <path d="M33.46,102.51 C31.33,101.31 29.66,99.62 28.46,97.46 C27.25,95.29 26.65,92.85 26.65,90.13 C26.65,87.41 27.25,84.97 28.46,82.82 C29.66,80.67 31.33,78.99 33.46,77.77 C35.59,76.55 38,75.94 40.69,75.94 C43.66,75.94 46.21,76.58 48.34,77.85 C50.47,79.13 52.01,80.93 52.95,83.27 L46.66,85.89 C45.54,83.52 43.55,82.33 40.69,82.33 C38.59,82.33 36.87,83.05 35.53,84.48 C34.19,85.91 33.51,87.8 33.51,90.14 C33.51,92.52 34.18,94.42 35.53,95.85 C36.88,97.28 38.59,98 40.69,98 C43.59,98 45.68,96.74 46.98,94.23 L53.21,96.95 C52.06,99.29 50.42,101.11 48.29,102.4 C46.16,103.69 43.63,104.34 40.7,104.34 C38,104.32 35.59,103.72 33.46,102.51 Z" fill="#FAFAFA"/>
  <path d="M78.55,102.51 C76.58,101.31 75.02,99.63 73.89,97.48 C72.76,95.33 72.19,92.88 72.19,90.12 C72.19,87.4 72.76,84.95 73.89,82.79 C75.02,80.63 76.58,78.94 78.55,77.74 C80.52,76.53 82.71,75.93 85.12,75.93 C86.94,75.93 88.54,76.32 89.94,77.11 C91.34,77.9 92.4,78.86 93.14,80.02 L93.56,80.02 L93.14,76.25 L93.14,65.98 L99.95,65.98 L99.95,103.48 L93.56,103.48 L93.56,100.28 L93.14,100.28 C92.44,101.43 91.39,102.39 89.97,103.16 C88.55,103.93 86.94,104.31 85.12,104.31 C82.71,104.32 80.52,103.72 78.55,102.51 Z M89.89,96.99 C91.01,96.33 91.9,95.4 92.56,94.21 C93.22,93.02 93.56,91.66 93.56,90.13 C93.56,88.6 93.23,87.23 92.56,86.04 C91.9,84.85 91.01,83.94 89.89,83.29 C88.77,82.64 87.57,82.32 86.28,82.32 C85.02,82.32 83.84,82.64 82.72,83.29 C81.6,83.94 80.71,84.85 80.05,86.04 C79.39,87.23 79.05,88.59 79.05,90.13 C79.05,91.67 79.38,93.03 80.05,94.21 C80.71,95.4 81.6,96.32 82.72,96.99 C83.84,97.65 85.02,97.99 86.28,97.99 C87.56,97.98 88.77,97.65 89.89,96.99 Z" fill="#FAFAFA"/>
</svg>
